icons/hearing_aid.svg

<svg width="48" height="48" viewBox="0 0 48 48" fill="none" xmlns="http://www.w3.org/2000/svg">
<path fill-rule="evenodd" clip-rule="evenodd" d="M26 7C19.9249 7 15 11.9249 15 18H13C13 10.8203 18.8203 5 26 5C33.1797 5 39 10.8203 39 18C39 22.5012 36.7115 26.4674 33.2393 28.7993C30.8696 30.3908 29 32.5075 29 34.9113V35C29 39.4183 25.4183 43 21 43C16.5817 43 13 39.4183 13 35V34.1421C13 31.601 13.8793 29.1505 15.4693 27.1975L14.8432 26.5714C14.4866 26.2147 14.4513 25.6484 14.7609 25.2503L19.1773 19.5722C19.0613 19.0668 19 18.5406 19 18C19 14.134 22.134 11 26 11C29.866 11 33 14.134 33 18C33 21.866 29.866 25 26 25C25.6159 25 25.2389 24.9691 24.8716 24.9095L18.9927 29.482C18.5946 29.7917 18.0282 29.7564 17.6716 29.3998L16.8926 28.6208C15.6724 30.1914 15 32.1321 15 34.1421V35C15 38.3137 17.6863 41 21 41C24.3137 41 27 38.3137 27 35V34.9113C27 31.4539 29.6282 28.8153 32.1242 27.139C35.067 25.1627 37 21.8069 37 18C37 11.9249 32.0751 7 26 7ZM22.6168 24.1296C21.5702 23.5507 20.6876 22.7116 20.0564 21.6995L16.8816 25.7814L18.4616 27.3613L22.6168 24.1296ZM26 13C23.2386 13 21 15.2386 21 18C21 20.7614 23.2386 23 26 23C28.7614 23 31 20.7614 31 18C31 15.2386 28.7614 13 26 13Z" fill="black"/>
</svg>

<svg
  xmlns="http://www.w3.org/2000/svg"
  width="24"
  height="24"
  viewBox="0 0 24 24"
  fill="none"
  stroke="currentColor"
  stroke-width="2"
  stroke-linecap="round"
  stroke-linejoin="round"
>
  <path
    fill-rule="evenodd"
    d="M26 7c-6.075 0-11 4.925-11 11h-2c0-7.18 5.82-13 13-13s13 5.82 13 13c0 4.501-2.288 8.467-5.76 10.8C30.87 30.39 29 32.506 29 34.91V35a8 8 0 1 1-16 0v-.858a11 11 0 0 1 2.47-6.945l-.627-.626a1 1 0 0 1-.082-1.32l4.416-5.679a7 7 0 1 1 5.694 5.337l-5.878 4.573a1 1 0 0 1-1.321-.082l-.78-.78A9 9 0 0 0 15 34.143V35a6 6 0 0 0 12 0v-.089c0-3.457 2.628-6.096 5.124-7.772A10.99 10.99 0 0 0 37 18c0-6.075-4.925-11-11-11m-3.383 17.13a7.03 7.03 0 0 1-2.56-2.43l-3.175 4.081 1.58 1.58zM26 13a5 5 0 1 0 0 10 5 5 0 0 0 0-10"
    clip-rule="evenodd"
  />
</svg>
